assets/icons/informations/chat_fill.svg

<svg viewBox="0 0 24 24" xmlns="http://www.w3.org/2000/svg">
<path d="M7 14H13.025C13.3083 14 13.5417 13.904 13.725 13.712C13.9083 13.5207 14 13.2833 14 13C14 12.7167 13.9043 12.479 13.713 12.287C13.521 12.0957 13.2833 12 13 12H6.975C6.69167 12 6.45833 12.0957 6.275 12.287C6.09167 12.479 6 12.7167 6 13C6 13.2833 6.09567 13.5207 6.287 13.712C6.479 13.904 6.71667 14 7 14ZM7 11H17.025C17.3083 11 17.5417 10.904 17.725 10.712C17.9083 10.5207 18 10.2833 18 10C18 9.71667 17.904 9.479 17.712 9.287C17.5207 9.09567 17.2833 9 17 9H6.975C6.69167 9 6.45833 9.09567 6.275 9.287C6.09167 9.479 6 9.71667 6 10C6 10.2833 6.09567 10.5207 6.287 10.712C6.479 10.904 6.71667 11 7 11ZM7 8H17.025C17.3083 8 17.5417 7.90433 17.725 7.713C17.9083 7.521 18 7.28333 18 7C18 6.71667 17.904 6.479 17.712 6.287C17.5207 6.09567 17.2833 6 17 6H6.975C6.69167 6 6.45833 6.09567 6.275 6.287C6.09167 6.479 6 6.71667 6 7C6 7.28333 6.09567 7.521 6.287 7.713C6.479 7.90433 6.71667 8 7 8ZM2 19.575V4C2 3.45 2.196 2.979 2.588 2.587C2.97933 2.19567 3.45 2 4 2H20C20.55 2 21.021 2.19567 21.413 2.587C21.8043 2.979 22 3.45 22 4V16C22 16.55 21.8043 17.021 21.413 17.413C21.021 17.8043 20.55 18 20 18H6L3.7 20.3C3.38333 20.6167 3.02067 20.6873 2.612 20.512C2.204 20.3373 2 20.025 2 19.575Z" fill="inherit"/>
</svg>

<svg viewBox="0 0 24 24" xmlns="http://www.w3.org/2000/svg"><path d="M7 14h6c.3 0 .5-.1.7-.3.2-.2.3-.4.3-.7a1 1 0 0 0-.3-.7 1 1 0 0 0-.7-.3H7a1 1 0 0 0-.7.3 1 1 0 0 0-.3.7c0 .3.1.5.3.7.2.2.4.3.7.3Zm0-3h10c.3 0 .5-.1.7-.3.2-.2.3-.4.3-.7a1 1 0 0 0-.3-.7A1 1 0 0 0 17 9H7a1 1 0 0 0-.7.3 1 1 0 0 0-.3.7c0 .3.1.5.3.7.2.2.4.3.7.3Zm0-3h10c.3 0 .5-.1.7-.3.2-.2.3-.4.3-.7a1 1 0 0 0-.3-.7A1 1 0 0 0 17 6H7a1 1 0 0 0-.7.3A1 1 0 0 0 6 7c0 .3.1.5.3.7.2.2.4.3.7.3ZM2 19.6V4c0-.5.2-1 .6-1.4A2 2 0 0 1 4 2h16c.6 0 1 .2 1.4.6.4.4.6.9.6 1.4v12c0 .6-.2 1-.6 1.4a2 2 0 0 1-1.4.6H6l-2.3 2.3a1 1 0 0 1-1 .2 1 1 0 0 1-.7-1Z" fill="inherit"/></svg>
